icons/arrow-down-24.svg

<svg xmlns="http://www.w3.org/2000/svg" width="24" height="24" viewBox="0 0 24 24"><path d="M4.97 13.22a.75.75 0 011.06 0L11 18.19V3.75a.75.75 0 011.5 0v14.44l4.97-4.97a.749.749 0 011.275.326.749.749 0 01-.215.734l-6.25 6.25a.75.75 0 01-1.06 0l-6.25-6.25a.75.75 0 010-1.06z"/></svg>

<svg xmlns="http://www.w3.org/2000/svg" width="24" height="24" viewBox="0 0 24 24">
  <defs/>
  <path d="M4.97,13.22 C5.263,12.928 5.737,12.928 6.03,13.22 L11,18.19 L11,3.75 C11,3.336 11.336,3 11.75,3 C12.164,3 12.5,3.336 12.5,3.75 L12.5,18.19 L17.47,13.22 C17.657,13.019 17.939,12.937 18.204,13.005 C18.47,13.072 18.678,13.28 18.745,13.546 C18.813,13.811 18.731,14.093 18.53,14.28 L12.28,20.53 C11.987,20.822 11.513,20.822 11.22,20.53 L4.97,14.28 C4.678,13.987 4.678,13.513 4.97,13.22 Z"/>
</svg>
